X: 886
T: The Victor's Return
N:"Collected by F.O'Neill"
B:O'Neill's 886
Z:Transcribed by Dan G. Petersen, dangp@post6.tele.dk
M:6/8
L:1/8
K:D
(g/f/)|eAA fed|eAA f2d|eAA gfe|dBG Ggf|
eAA fed|eAA f2d|agf gfe|dB^G A2:|
B|A2a aba|gef gdB|A2a aba|gfe dcB|
A2a aba|gef g2f|gfe efg|dB^G A2:|


